src/assets/images/icons/sun.svg

<svg width="24" height="24" viewBox="0 0 24 24" fill="none" xmlns="http://www.w3.org/2000/svg">
<g clip-path="url(#clip0_16_4193)">
<path d="M12 1V3M12 21V23M4.22 4.22L5.64 5.64M18.36 18.36L19.78 19.78M1 12H3M21 12H23M4.22 19.78L5.64 18.36M18.36 5.64L19.78 4.22M17 12C17 14.7614 14.7614 17 12 17C9.23858 17 7 14.7614 7 12C7 9.23858 9.23858 7 12 7C14.7614 7 17 9.23858 17 12Z" stroke="#181D27" stroke-width="2" stroke-linecap="round" stroke-linejoin="round"/>
</g>
<defs>
<clipPath id="clip0_16_4193">
<rect width="24" height="24" fill="white"/>
</clipPath>
</defs>
</svg>

<svg xmlns="http://www.w3.org/2000/svg" fill="none" viewBox="0 0 24 24"><g clip-path="url(#a)"><path stroke="#181D27" stroke-linecap="round" stroke-linejoin="round" stroke-width="2" d="M12 1v2m0 18v2M4.22 4.22l1.42 1.42m12.72 12.72 1.42 1.42M1 12h2m18 0h2M4.22 19.78l1.42-1.42M18.36 5.64l1.42-1.42M17 12a5 5 0 1 1-10 0 5 5 0 0 1 10 0"/></g><defs><clipPath id="a"><path fill="#fff" d="M0 0h24v24H0z"/></clipPath></defs></svg>
